fa/battery-empty.svg

<svg xmlns="http://www.w3.org/2000/svg" viewBox="0 0 576 512" height="1em" width="1em">
  <path d="M464 96c44.2 0 80 35.8 80 80v16c17.7 0 32 14.3 32 32v64c0 17.7-14.3 32-32 32v16c0 44.2-35.8 80-80 80H80c-44.18 0-80-35.8-80-80V176c0-44.2 35.82-80 80-80h384zM64 336c0 8.8 7.16 16 16 16h384c8.8 0 16-7.2 16-16V176c0-8.8-7.2-16-16-16H80c-8.84 0-16 7.2-16 16v160z"/>
</svg>

<svg xmlns="http://www.w3.org/2000/svg" viewBox="0 0 576 512" height="1em" width="1em">
  <path d="M464 96C508.2 96 544 131.8 544 176V192C561.7 192 576 206.3 576 224V288C576 305.7 561.7 320 544 320V336C544 380.2 508.2 416 464 416H80C35.82 416 0 380.2 0 336V176C0 131.8 35.82 96 80 96H464zM64 336C64 344.8 71.16 352 80 352H464C472.8 352 480 344.8 480 336V176C480 167.2 472.8 160 464 160H80C71.16 160 64 167.2 64 176V336z"/>
</svg>
